storage/app/icons/tabler/filled/directions.svg

<!--
unicode: "1003f"
version: "3.17"
-->
<svg
  xmlns="http://www.w3.org/2000/svg"
  width="24"
  height="24"
  viewBox="0 0 24 24"
  fill="currentColor"
>
  <path d="M10 22a1 1 0 0 1 0 -2h1v-2.001l-5 .001a1 1 0 0 1 -.707 -.293l-2 -2a1 1 0 0 1 0 -1.414l2 -2a1 1 0 0 1 .707 -.293l5 -.001v-1.999h-3a1 1 0 0 1 -1 -1v-4a1 1 0 0 1 1 -1h3v-1a1 1 0 0 1 2 0v1h6a1 1 0 0 1 .707 .293l2 2a1 1 0 0 1 0 1.414l-2 2a1 1 0 0 1 -.707 .293h-6v1.999l1 .001a1 1 0 0 1 1 1v4a1 1 0 0 1 -1 1l-1 -.001v2.001h1a1 1 0 0 1 0 2z" />
</svg>

<svg xmlns="http://www.w3.org/2000/svg" width="24" height="24" fill="currentColor" viewBox="0 0 24 24"><path d="M10 22a1 1 0 0 1 0-2h1v-2.001L6 18a1 1 0 0 1-.707-.293l-2-2a1 1 0 0 1 0-1.414l2-2A1 1 0 0 1 6 12l5-.001V10H8a1 1 0 0 1-1-1V5a1 1 0 0 1 1-1h3V3a1 1 0 0 1 2 0v1h6a1 1 0 0 1 .707.293l2 2a1 1 0 0 1 0 1.414l-2 2A1 1 0 0 1 19 10h-6v1.999L14 12a1 1 0 0 1 1 1v4a1 1 0 0 1-1 1l-1-.001V20h1a1 1 0 0 1 0 2z"/></svg>
